assets/fraunhofergesellschaft/mono.svg

<svg viewBox="0 0 24 24" xmlns="http://www.w3.org/2000/svg"><path d="m.06 23.99c5.681-2.926 14-7.653 23.88-14.567v-2.32c-8.693 5.689-17.534 10.256-23.88 13.277zm0-6.93c6.325-2.575 15.166-6.558 23.88-11.74v-1.146c-8.189 4.064-16.7 6.607-23.88 8.192zm23.88 6.94v-11.668a201.394 201.393 0 0 1 -15.344 11.668zm-18.398 0a166.927 166.926 0 0 0 14.7-9.765 323.136 324.76 0 0 0 3.698-2.81v-1.445c-7.683 5.76-15.527 10.562-21.653 14.02zm-5.482-13.332c6.984-1.228 15.529-3.437 23.88-7.406v-1.3c-8.414 3.775-16.838 5.376-23.88 5.948zm0-10.668v6.686c.522-.033 1.054-.07 1.596-.111 5.808-.449 13.731-1.475 22.284-5.173v-1.402z"/></svg>

<svg xmlns="http://www.w3.org/2000/svg" viewBox="0 0 24 24"><path d="M.06 23.99c5.681-2.926 14-7.653 23.88-14.567v-2.32C15.247 12.792 6.406 17.359.06 20.38zm0-6.93c6.325-2.575 15.166-6.558 23.88-11.74V4.174C15.751 8.238 7.24 10.781.06 12.366zM23.94 24V12.332A201.394 201.393 0 0 1 8.596 24zM5.542 24a166.927 166.926 0 0 0 14.7-9.765 323.136 324.76 0 0 0 3.698-2.81V9.98C16.257 15.74 8.413 20.542 2.287 24zM.06 10.668C7.044 9.44 15.589 7.231 23.94 3.262v-1.3C15.526 5.737 7.102 7.338.06 7.91zM.06 0v6.686q.783-.05 1.596-.111C7.464 6.126 15.387 5.1 23.94 1.402V0z"/></svg>
